Sources/FrostedUI/Resources/Icons.xcassets/squareAdd24.imageset/square-add-24.svg

<svg width="24" height="24" viewBox="0 0 24 24" fill="none" xmlns="http://www.w3.org/2000/svg" data-fui-icon="true">
  <path
    d="M18.25 3C19.7688 3 21 4.23122 21 5.75V11.25C21 11.6642 20.6642 12 20.25 12C19.8358 12 19.5 11.6642 19.5 11.25V5.75C19.5 5.05964 18.9404 4.5 18.25 4.5H5.75C5.05964 4.5 4.5 5.05964 4.5 5.75V18.25C4.5 18.9404 5.05964 19.5 5.75 19.5H12.25C12.6642 19.5 13 19.8358 13 20.25C13 20.6642 12.6642 21 12.25 21H5.75C4.23122 21 3 19.7688 3 18.25V5.75C3 4.23122 4.23122 3 5.75 3H18.25ZM18.25 13.5C18.6642 13.5 19 13.8358 19 14.25V16.5H21.25C21.6642 16.5 22 16.8358 22 17.25C22 17.6642 21.6642 18 21.25 18H19V20.25C19 20.6642 18.6642 21 18.25 21C17.8358 21 17.5 20.6642 17.5 20.25V18H15.25C14.8358 18 14.5 17.6642 14.5 17.25C14.5 16.8358 14.8358 16.5 15.25 16.5H17.5V14.25C17.5 13.8358 17.8358 13.5 18.25 13.5Z"
    fill="currentColor"
  />
</svg>

<svg xmlns="http://www.w3.org/2000/svg" width="24" height="24" fill="none" data-fui-icon="true" viewBox="0 0 24 24"><path fill="currentColor" d="M18.25 3A2.75 2.75 0 0 1 21 5.75v5.5a.75.75 0 0 1-1.5 0v-5.5c0-.69-.56-1.25-1.25-1.25H5.75c-.69 0-1.25.56-1.25 1.25v12.5c0 .69.56 1.25 1.25 1.25h6.5a.75.75 0 0 1 0 1.5h-6.5A2.75 2.75 0 0 1 3 18.25V5.75A2.75 2.75 0 0 1 5.75 3zm0 10.5a.75.75 0 0 1 .75.75v2.25h2.25a.75.75 0 0 1 0 1.5H19v2.25a.75.75 0 0 1-1.5 0V18h-2.25a.75.75 0 0 1 0-1.5h2.25v-2.25a.75.75 0 0 1 .75-.75"/></svg>
